X: 14
T: 128 South
R: reel
M: 4/4
K: Dmajor
|:DE|F3F EDFA|B3B A2dc|B3A EDFA|GFED B,2DC|
D3E FD dc|B3d A2 F/E/D|B,2GA E3D|D6:|
|:DA|d3c AGFG|A3F EDFA|B3B ADGF|(E4E) Ddc|
B3A ED de|f3a bf f/e/d|B3A E3D|D6:|

